dist/img/icon-social-odnk.svg

<svg width="13" height="17" viewBox="0 0 13 17" fill="none" xmlns="http://www.w3.org/2000/svg">
<path d="M6.59222 0.667969C4.46064 0.667969 2.70801 2.39692 2.70801 4.55218C2.70801 6.70744 4.43695 8.43639 6.59222 8.43639C8.74748 8.43639 10.4764 6.70744 10.4764 4.55218C10.4764 2.39692 8.74748 0.667969 6.59222 0.667969ZM6.59222 6.48244C5.51459 6.48244 4.65011 5.61797 4.65011 4.54034C4.65011 3.46271 5.51459 2.61007 6.59222 2.61007C7.66985 2.61007 8.53432 3.47455 8.53432 4.55218C8.53432 5.61797 7.66985 6.48244 6.59222 6.48244Z" fill="#2C3D52"/>
<path d="M12.3119 9.01655C11.9685 8.37707 11.1632 8.15207 10.5238 8.51918C7.88297 9.99944 5.31323 9.99944 2.67244 8.51918C2.03297 8.15207 1.2277 8.38891 0.860597 9.04023C0.493492 9.66786 0.730334 10.485 1.38165 10.8284C2.24612 11.3258 3.16981 11.6929 4.12902 11.9652L2.25797 13.8363C1.73691 14.3573 1.73691 15.1863 2.25797 15.6837C2.75533 16.2047 3.58428 16.2047 4.10533 15.6837L6.59218 13.1968L9.07902 15.6837C9.57639 16.2047 10.4053 16.2047 10.9264 15.6837C11.4474 15.1626 11.4474 14.3337 10.9264 13.8363L9.05533 11.9652C10.0145 11.7165 10.9382 11.3258 11.8027 10.8284C12.4422 10.4613 12.679 9.66786 12.3119 9.01655C12.3119 9.04023 12.3119 9.04023 12.3119 9.01655Z" fill="#2C3D52"/>
</svg>

<svg xmlns="http://www.w3.org/2000/svg" width="13" height="17" fill="none" viewBox="0 0 13 17"><path fill="#2C3D52" d="M6.592.668a3.886 3.886 0 0 0-3.884 3.884 3.87 3.87 0 0 0 3.884 3.884 3.87 3.87 0 0 0 3.884-3.884A3.87 3.87 0 0 0 6.592.668m0 5.814A1.936 1.936 0 0 1 4.65 4.54c0-1.077.865-1.93 1.942-1.93a1.936 1.936 0 1 1 0 3.872"/><path fill="#2C3D52" d="M12.312 9.017a1.29 1.29 0 0 0-1.788-.498C7.883 10 5.314 10 2.672 8.52c-.639-.367-1.444-.13-1.811.521a1.29 1.29 0 0 0 .52 1.788 12 12 0 0 0 2.748 1.137l-1.871 1.871c-.521.521-.521 1.35 0 1.848.497.52 1.326.52 1.847 0l2.487-2.487 2.487 2.487c.497.52 1.326.52 1.847 0 .521-.521.521-1.35 0-1.848l-1.87-1.87c.959-.25 1.882-.64 2.747-1.138.64-.367.876-1.16.509-1.811q0 .034 0 0"/></svg>
